X:119
%%pagewidth 8.5in
%%vocalfont Baskerville10Pro 13
T:Greensleeves
M:6/8
L:1/8
K:G
%%score 1 2
V:1 clef-treble
V:2 clef-bass octave=-1
V:1
[B,E]|[EG]2A (B>c)B&x3Dx2|[DA]2F (D>E)[DF]|[B,G]2E (E^D)E|
w:A-las! my love,* you do me wrong,* To cast me off* dis-
V:2
[EG]|[CG]3[G,G]3|[DF]3-[DF]2[DA]|[EG]3[CG]3|
V:1
[^DF]2DB,2[B,E]|[EG]2A B>cB&x3Dx2|[DA]2F (D>E)[DF]|G>FE (^D>^C)D&B,x2B,x2|[G,E]3[G,B,E]2||
w:courteosly,** And I have lov-*ed you so long,* De-light-*ing in* your comp-any.
V:2
B3x2[EG]&B,3-B,2x|[CG]3[G,G]3|[DF]3-[DF]2[DA]|[EG]3[B,F]3|[E,E]3[E,E]2||
V:1
z|"^sf"[Dd]3 (d>[A^c])[GB]&x3[DB]x2|[FA]2F (D>EF)|[B,(G]2E) (E>D)E|[^DF]2DB,3|
w:Green-sleeves* was all my joy,__ Green-*sleeves* was my de-light,
V:2
z|[B,F]3[G,G]3|[DA]3-[DA]2[DA]|[EG]3[CG]3|B3x3&B,3-B,3|
V:1
"^sf"[=D=d]3d>[A^c][GB]&x3[DB]x2|[FA]2F (D>E)[DF]|G>FE (^D>^C)D&B,x2B,x2|[G,E]3[G,B,E]2||
w:Green-sleeves was my heart of gold,* And who but my La-*dy Green-sleeves.
V:2
[B,F]3[G,G]3|[DA]3-[DA]2[DA]|[EG]3[B,F]3|[E,E]3[E,E]2||

